; HEADER_BLOCK_START
; generated by OrcaSlicer 1.9.1 on 2024-03-27 at 16:33:33
; total layer number: 72
; filament_density: 1.24
; filament_diameter: 1.75
; max_z_height: 11.20
; HEADER_BLOCK_END

; THUMBNAIL_BLOCK_START

;
; THUMBNAIL_BLOCK_END

; THUMBNAIL_BLOCK_START

;
; THUMBNAIL_BLOCK_END

; external perimeters extrusion width = 0.42mm
; perimeters extrusion width = 0.45mm
; infill extrusion width = 0.45mm
; solid infill extrusion width = 0.42mm
; top infill extrusion width = 0.42mm
; support material extrusion width = 0.42mm
; first layer extrusion width = 0.50mm

; EXECUTABLE_BLOCK_START
EXCLUDE_OBJECT_DEFINE NAME=case_left.stl_id_0_copy_0 CENTER=110,111.433 POLYGON=[[4.23458,151.75],[4.29333,150.708],[4.61991,149.716],[5.19206,148.842],[72.8981,70.1968],[74.1133,68.8962],[75.4304,67.6989],[91.8889,53.1676],[105.808,43.3212],[164.971,7.30408],[165.895,6.81748],[166.914,6.58659],[167.957,6.62713],[168.954,6.93635],[169.838,7.49317],[170.547,8.25965],[171.124,9.07605],[202.973,54.1],[205.529,57.9803],[207.82,62.0222],[209.837,66.2077],[211.57,70.5183],[213.013,74.9347],[214.158,79.4375],[215,84.0065],[215.537,88.6215],[215.765,93.262],[215.662,94.225],[215.332,95.1354],[214.792,95.9395],[214.075,96.5904],[81.9242,214.901],[81.1454,215.597],[80.2132,216.067],[79.191,216.28],[78.1484,216.221],[77.1566,215.895],[76.2831,215.323],[5.61373,154.484],[4.91807,153.705],[4.44766,152.773],[4.23458,151.75]]
M73 P0 R79
M106 S0
M106 P2 S0
;TYPE:Custom
M140 S0
M104 S0 
START_PRINT EXTRUDER_TEMP=220 BED_TEMP=60
G90
G21
M83 ; use relative distances for extrusion
; filament start gcode
M106 S0
M106 P2 S0
;LAYER_CHANGE
;Z:0.2
;HEIGHT:0.2
;BEFORE_LAYER_CHANGE
;0.2
G92 E0

G1 E-.5 F2400
;_SET_FAN_SPEED_CHANGING_LAYER
SET_VELOCITY_LIMIT ACCEL=500 ACCEL_TO_DECEL=250
SET_VELOCITY_LIMIT SQUARE_CORNER_VELOCITY=9
EXCLUDE_OBJECT_START NAME=case_left.stl_id_0_copy_0
G1 Z.2 F30000
G1 X172.357 Y10.49
G1 Z.2
G1 E.5 F2400
;TYPE:Support
;WIDTH:0.5
G1 F3000
G1 X171.617 Y10.725 E.0289
G1 X170.115 Y8.602 E.09686
G2 X169.585 Y8.511 I-.375 J.597 E.02056
G1 X168.594 Y9.213 E.04524
G1 X168.545 Y9.498 E.0108
G1 X170.791 Y12.674 E.14488
G1 X166.603 Y12.674 E.15601
G1 X166.603 Y15.551 E.10716
G1 X163.725 Y15.551 E.10716
G1 X163.725 Y18.428 E.10716
G1 X157.971 Y18.428 E.21432
G1 X157.971 Y21.305 E.10716
G1 X155.094 Y21.305 E.10716
G1 X155.094 Y24.182 E.10716
G1 X149.34 Y24.182 E.21432
G1 X149.34 Y27.06 E.10716
G1 X146.463 Y27.06 E.10716
G1 X146.463 Y29.937 E.10716
G1 X144.663 Y29.937 E.06705
G1 X141.303 Y25.186 E.21671
G2 X140.772 Y25.096 I-.375 J.597 E.02056
G1 X136.832 Y27.883 E.17978
G1 X136.832 Y20.306 E.28223
G1 X142.586 Y20.306 E.21432
G1 X142.586 Y17.428 E.10716
G1 X145.463 Y17.428 E.10716
G1 X145.463 Y14.551 E.10716
G1 X151.217 Y14.551 E.21432
G1 X151.217 Y11.674 E.10716
G1 X154.094 Y11.674 E.10716
G1 X154.094 Y8.797 E.10716
G1 X156.971 Y8.797 E.10716
G1 X156.971 Y5.92 E.10716
G1 X162.726 Y5.92 E.21432
G1 X162.726 Y3.043 E.10716
G1 X172.357 Y3.043 E.35872
G1 X172.357 Y10.421 E.27481
G1 E-.35 F2400
;WIPE_START
G1 F3000
G1 X172.357 Y9.421 E-.15
;WIPE_END
G1 Z.4 F30000
G1 X137.243 Y27.088 Z.4
G1 Z.2
G1 E.5 F2400
G1 F3000
G1 X137.243 Y20.717 E.2373
G1 X142.997 Y20.717 E.21432
G1 X142.997 Y17.84 E.10716
G1 X145.875 Y17.84 E.10716
G1 X145.875 Y14.963 E.10716
G1 X151.629 Y14.963 E.21432
G1 X151.629 Y12.086 E.10716
G1 X154.506 Y12.086 E.10716
G1 X154.506 Y9.209 E.10716
G1 X157.383 Y9.209 E.10716
G1 X157.383 Y6.332 E.10716
G1 X163.137 Y6.332 E.21432
G1 X163.137 Y3.454 E.10716
G1 X171.945 Y3.454 E.32808
G1 X171.945 Y10.189 E.25084
G1 X171.779 Y10.242 E.00649
G1 X170.404 Y8.298 E.0887
G2 X169.414 Y8.128 I-.669 J.929 E.03871
G1 X168.217 Y8.975 E.05463
G1 X168.11 Y9.597 E.02349
G1 X169.996 Y12.263 E.12162
G1 X166.191 Y12.263 E.14172
G1 X166.191 Y15.14 E.10716
G1 X163.314 Y15.14 E.10716
G1 X163.314 Y18.017 E.10716
G1 X157.56 Y18.017 E.21432
G1 X157.56 Y20.894 E.10716
G1 X154.683 Y20.894 E.10716
G1 X154.683 Y23.771 E.10716
G1 X148.929 Y23.771 E.21432
G1 X148.929 Y26.648 E.10716
G1 X146.052 Y26.648 E.10716
G1 X146.052 Y29.525 E.10716
G1 X144.876 Y29.525 E.0438
G1 X141.591 Y24.882 E.21183
G2 X140.602 Y24.712 I-.669 J.929 E.03871
G1 X137.243 Y27.088 E.15322
G1 X137.751 Y26.107 F30000
G1 F3000
G1 X137.751 Y21.225 E.18184
G1 X143.505 Y21.225 E.21432
G1 X143.505 Y18.348 E.10716
G1 X146.382 Y18.348 E.10716
G1 X146.382 Y15.471 E.10716
G1 X152.137 Y15.471 E.21432
G1 X152.137 Y12.594 E.10716
G1 X155.014 Y12.594 E.10716
G1 X155.014 Y9.716 E.10716
G1 X157.891 Y9.716 E.10716
G1 X157.891 Y6.839 E.10716
G1 X163.645 Y6.839 E.21432
G1 X163.645 Y3.962 E.10716
G1 X171.437 Y3.962 E.29024
G1 X171.437 Y8.328 E.16259
G1 X171.119 Y8.429 E.01245
G2 X169.204 Y7.655 I-1.349 J.582 E.08532
G1 X167.752 Y8.682 E.06623
G1 X167.574 Y9.718 E.03916
G1 X169.015 Y11.755 E.09291
G1 X165.683 Y11.755 E.12409
G1 X165.683 Y14.632 E.10716
G1 X162.806 Y14.632 E.10716
G1 X162.806 Y17.509 E.10716
G1 X157.052 Y17.509 E.21432
G1 X157.052 Y20.386 E.10716
G1 X154.175 Y20.386 E.10716
G1 X154.175 Y23.263 E.10716
G1 X148.421 Y23.263 E.21432
G1 X148.421 Y26.14 E.10716
G1 X145.544 Y26.14 E.10716
G1 X145.544 Y29.017 E.10716
G1 X145.139 Y29.017 E.01509
G1 X141.947 Y24.506 E.20581
G2 X140.391 Y24.24 I-1.035 J1.362 E.06115
G1 X137.751 Y26.107 E.12043
G1 X138.259 Y25.125 F30000
G1 F3000
G1 X138.259 Y21.733 E.12637
G1 X144.013 Y21.733 E.21432
G1 X144.013 Y18.856 E.10716
G1 X146.89 Y18.856 E.10716
G1 X146.89 Y15.978 E.10716
G1 X152.644 Y15.978 E.21432
G1 X152.644 Y13.101 E.10716
G1 X155.522 Y13.101 E.10716
G1 X155.522 Y10.224 E.10716
G1 X158.399 Y10.224 E.10716
G1 X158.399 Y7.347 E.10716
G1 X164.153 Y7.347 E.21432
G1 X164.153 Y4.47 E.10716
G1 X170.93 Y4.47 E.25241
G1 X170.93 Y7.428 E.11018
G2 X168.993 Y7.182 I-1.219 J1.852 E.0753
G1 X167.287 Y8.389 E.07783
G1 X167.038 Y9.84 E.05483
G1 X168.034 Y11.247 E.06419
G1 X165.175 Y11.247 E.10645
G1 X165.175 Y14.124 E.10716
G1 X162.298 Y14.124 E.10716
G1 X162.298 Y17.001 E.10716
G1 X156.544 Y17.001 E.21432
G1 X156.544 Y19.878 E.10716
G1 X153.667 Y19.878 E.10716
G1 X153.667 Y22.755 E.10716
G1 X147.913 Y22.755 E.21432
G1 X147.913 Y25.632 E.10716
G1 X145.036 Y25.632 E.10716
G1 X145.036 Y27.441 E.06737
G1 X144.717 Y27.542 E.01245
G1 X142.304 Y24.131 E.15566
G2 X140.18 Y23.767 I-1.401 J1.799 E.08359
G1 X138.259 Y25.125 E.08764
G1 X138.767 Y24.144 F30000
G1 F3000
G1 X138.767 Y22.24 E.0709
G1 X144.521 Y22.24 E.21432
G1 X144.521 Y19.363 E.10716
G1 X147.398 Y19.363 E.10716
G1 X147.398 Y16.486 E.10716
G1 X153.152 Y16.486 E.21432
G1 X153.152 Y13.609 E.10716
G1 X156.029 Y13.609 E.10716
G1 X156.029 Y10.732 E.10716
G1 X158.906 Y10.732 E.10716
G1 X158.906 Y7.855 E.10716
G1 X164.661 Y7.855 E.21432
G1 X164.661 Y4.978 E.10716
G1 X170.422 Y4.978 E.21458
G1 X170.422 Y6.637 E.0618
G2 X168.782 Y6.709 I-.733 J2.015 E.06273
G1 X166.822 Y8.096 E.08943
G1 X166.502 Y9.962 E.0705
G1 X167.052 Y10.739 E.03548
G1 X164.668 Y10.739 E.08882
G1 X164.668 Y13.616 E.10716
G1 X161.79 Y13.616 E.10716
G1 X161.79 Y16.493 E.10716
G1 X156.036 Y16.493 E.21432
G1 X156.036 Y19.37 E.10716
G1 X153.159 Y19.37 E.10716
G1 X153.159 Y22.247 E.10716
G1 X147.405 Y22.247 E.21432
G1 X147.405 Y25.125 E.10716
G1 X144.528 Y25.125 E.10716
G1 X144.528 Y25.844 E.02679
G1 X144.209 Y25.945 E.01245
G1 X142.66 Y23.755 E.09993
G2 X138.767 Y24.144 I-1.752 J2.141 E.16186
G1 X142.54 Y23.079 F30000
G1 F3000
G1 X142.635 Y22.748 E.0128
G1 X145.029 Y22.748 E.08916
G1 X145.029 Y19.871 E.10716
G1 X147.906 Y19.871 E.10716
G1 X147.906 Y16.994 E.10716
G1 X153.66 Y16.994 E.21432
G1 X153.66 Y14.117 E.10716
G1 X156.537 Y14.117 E.10716
G1 X156.537 Y11.24 E.10716
G1 X159.414 Y11.24 E.10716
G1 X159.414 Y8.363 E.10716
G1 X165.168 Y8.363 E.21432
G1 X165.168 Y5.486 E.10716
G1 X169.914 Y5.486 E.17675
G1 X169.914 Y6.035 E.02045
G2 X168.571 Y6.236 I-.428 J1.721 E.05189
G1 X166.357 Y7.803 E.10102
G1 X165.941 Y10.231 E.09178
G1 X164.16 Y10.231 E.06633
G1 X164.16 Y13.108 E.10716
G1 X161.283 Y13.108 E.10716
G1 X161.283 Y15.985 E.10716
G1 X155.528 Y15.985 E.21432
G1 X155.528 Y18.863 E.10716
G1 X152.651 Y18.863 E.10716
G1 X152.651 Y21.74 E.10716
G1 X146.897 Y21.74 E.21432
G1 X146.897 Y24.617 E.10716
G1 X143.892 Y24.617 E.11194
G1 X143.016 Y23.379 E.05646
G1 X142.54 Y23.079 E.02099
G1 X143.552 Y23.256 F30000
G1 F3000
G1 X145.537 Y23.256 E.07394
G1 X145.537 Y20.379 E.10716
G1 X148.414 Y20.379 E.10716
G1 X148.414 Y17.502 E.10716
G1 X154.168 Y17.502 E.21432
G1 X154.168 Y14.625 E.10716
G1 X157.045 Y14.625 E.10716
G1 X157.045 Y11.748 E.10716
G1 X159.922 Y11.748 E.10716
G1 X159.922 Y8.871 E.10716
G1 X165.659 Y8.871 E.21366
G1 X165.512 Y9.723 E.03222
G1 X163.652 Y9.723 E.0693
G1 X163.652 Y12.6 E.10716
G1 X160.775 Y12.6 E.10716
G1 X160.775 Y15.478 E.10716
G1 X155.021 Y15.478 E.21432
G1 X155.021 Y18.355 E.10716
G1 X152.144 Y18.355 E.10716
G1 X152.144 Y21.232 E.10716
G1 X146.389 Y21.232 E.21432
G1 X146.389 Y24.109 E.10716
G1 X144.155 Y24.109 E.08323
G1 X143.552 Y23.256 E.0389
G1 X148.922 Y20.724 F30000
G1 F3000
G1 X148.922 Y18.01 E.10108
G1 X151.636 Y18.01 E.10108
G1 X151.636 Y20.724 E.10108
G1 X148.922 Y20.724 E.10108
G1 X149.43 Y20.216 F30000
G1 F3000
G1 X149.43 Y18.518 E.06325
G1 X151.128 Y18.518 E.06325
G1 X151.128 Y20.216 E.06325
G1 X149.43 Y20.216 E.06325
G1 X149.937 Y19.708 F30000
G1 F3000
G1 X149.937 Y19.026 E.02542
G1 X150.62 Y19.026 E.02542
G1 X150.62 Y19.708 E.02542
G1 X149.937 Y19.708 E.02542
G1 X157.553 Y14.97 F30000
G1 F3000
G1 X157.553 Y12.256 E.10108
G1 X160.267 Y12.256 E.10108
G1 X160.267 Y14.97 E.10108
G1 X157.553 Y14.97 E.10108
G1 X158.061 Y14.462 F30000
G1 F3000
G1 X158.061 Y12.764 E.06325
G1 X159.759 Y12.764 E.06325
G1 X159.759 Y14.462 E.06325
G1 X158.061 Y14.462 E.06325
G1 X158.569 Y13.954 F30000
G1 F3000
G1 X158.569 Y13.272 E.02542
G1 X159.251 Y13.272 E.02542
G1 X159.251 Y13.954 E.02542
G1 X158.569 Y13.954 E.02542
G1 X160.43 Y12.093 F30000
G1 F3000
G1 X160.43 Y9.379 E.10108
G1 X163.144 Y9.379 E.10108
G1 X163.144 Y12.093 E.10108
G1 X160.43 Y12.093 E.10108
G1 X160.938 Y11.585 F30000
G1 F3000
G1 X160.938 Y9.887 E.06325
G1 X162.636 Y9.887 E.06325
G1 X162.636 Y11.585 E.06325
G1 X160.938 Y11.585 E.06325
G1 X161.446 Y11.077 F30000
G1 F3000
G1 X161.446 Y10.394 E.02542
G1 X162.128 Y10.394 E.02542
G1 X162.128 Y11.077 E.02542
G1 X161.446 Y11.077 E.02542
G1 X165.676 Y7.662 F30000
G1 F3000
G1 X165.676 Y5.994 E.06213
G1 X167.483 Y5.994 E.06729
G1 X167.584 Y6.312 E.01245
G1 X165.676 Y7.662 E.08705
G1 E-.35 F2400
;WIPE_START
G1 F3000
G1 X166.493 Y7.084 E-.15
;WIPE_END
G1 Z.4 F30000
G1 X175.019 Y75.956 Z.4
G1 Z.2
G1 E.5 F2400
;TYPE:Inner wall
;WIDTH:0.499999
G1 F3000
G1 X175.276 Y76.057 E.01031
G1 X175.587 Y76.356 E.01604
G1 X183.87 Y88.065 E.53422
G1 X184.042 Y88.435 E.01519
G3 X183.864 Y89.393 I-1.237 J.266 E.03729
G1 X183.597 Y89.658 E.01399
G1 X171.887 Y97.941 E.53422
G1 X171.551 Y98.104 E.01393
G1 X171.168 Y98.149 E.01436
G1 X170.841 Y98.083 E.01244
G1 X170.521 Y97.906 E.0136
G1 X170.295 Y97.668 E.01225
G1 X162.012 Y85.958 E.53422
G3 X161.805 Y85.377 I.933 J-.66 E.02326
;WIDTH:0.548625
G1 X161.794 Y85.243 E.00555
;WIDTH:0.597251
G1 X161.783 Y85.109 E.00608
;WIDTH:0.645876
G3 X161.827 Y84.824 I.338 J-.094 E.01462
;WIDTH:0.642772
G1 X161.957 Y84.688 E.00918
;WIDTH:0.595181
G1 X162.087 Y84.552 E.00845
;WIDTH:0.54759
G1 X162.218 Y84.417 E.00773
;WIDTH:0.499999
G1 X173.994 Y76.083 E.53736
G1 X174.386 Y75.905 E.01604
G1 X174.847 Y75.889 E.01718
G1 X174.982 Y75.942 E.00538
G1 X174.697 Y76.351 F30000
G1 F3000
G1 X174.828 Y76.352 E.00489
G1 X175.102 Y76.497 E.01154
G1 X175.214 Y76.62 E.00618
G1 X183.497 Y88.329 E.53422
G3 X183.59 Y88.935 I-.632 J.407 E.02353
G1 X183.424 Y89.208 E.01189
G1 X183.333 Y89.285 E.00443
G1 X171.623 Y97.568 E.53422
G1 X171.327 Y97.686 E.01191
G1 X170.995 Y97.653 E.0124
G1 X170.738 Y97.488 E.01139
G1 X170.191 Y96.73 E.03481
G1 X162.385 Y85.694 E.50347
G1 X162.274 Y85.44 E.01033
G1 X162.261 Y85.346 E.00355
G1 X162.314 Y85.03 E.01192
G1 X162.508 Y84.77 E.01212
G1 X174.258 Y76.456 E.5361
G1 X174.493 Y76.349 E.00962
G1 X174.657 Y76.351 E.0061
G1 X174.693 Y76.79 F30000
;TYPE:Outer wall
G1 F3000
G1 X174.841 Y76.884 E.00651
G1 X183.124 Y88.593 E.53422
G1 X183.165 Y88.731 E.00538
G1 X183.099 Y88.886 E.00626
G1 X183.069 Y88.912 E.00148
G1 X171.36 Y97.195 E.53422
G1 X171.201 Y97.235 E.00608
G1 X171.064 Y97.168 E.00568
G1 X170.564 Y96.466 E.0321
G1 X162.758 Y85.431 E.50347
G1 X162.717 Y85.314 E.00459
G1 X162.778 Y85.142 E.00682
G1 X163.403 Y84.694 E.02864
G1 X174.522 Y76.829 E.50727
G1 X174.654 Y76.799 E.00503
G1 E-.35 F2400
;WIPE_START
G1 F3000
G1 X174.841 Y76.884 E-.03077
G1 X175.3 Y77.532 E-.11923
;WIPE_END
G1 Z.4 F30000
G1 X147.547 Y69.74 Z.4
G1 Z.2
G1 E.5 F2400
;TYPE:Inner wall
G1 F3000
G1 X148.127 Y70.524 E.03631
G1 X155.886 Y81.492 E.50042
G1 X156.034 Y81.781 E.01208
;WIDTH:0.538159
G1 X156.078 Y82.049 E.01097
;WIDTH:0.576319
G1 X156.122 Y82.317 E.01181
;WIDTH:0.611098
G1 X156.124 Y82.397 E.00368
;WIDTH:0.645877
G1 X156.125 Y82.476 E.0039
;WIDTH:0.650327
G1 X156.037 Y82.708 E.0123
G1 X155.931 Y82.803 E.00701
;WIDTH:0.612745
G1 X155.825 Y82.897 E.00658
;WIDTH:0.575163
G1 X155.719 Y82.991 E.00615
;WIDTH:0.537581
G1 X155.613 Y83.085 E.00571
;WIDTH:0.499999
G1 X143.904 Y91.368 E.53422
G1 X143.534 Y91.541 E.01519
G1 X143.212 Y91.578 E.01208
G1 X142.806 Y91.491 E.01544
G1 X142.492 Y91.296 E.01379
G1 X141.871 Y90.473 E.03839
G1 X134.028 Y79.386 E.50584
G1 X133.867 Y79.058 E.0136
G1 X133.818 Y78.714 E.01294
G1 X133.873 Y78.376 E.01276
G1 X134.015 Y78.084 E.01208
G1 X134.301 Y77.793 E.01519
G1 X146.01 Y69.51 E.53422
G1 X146.38 Y69.338 E.01519
G1 X146.75 Y69.303 E.01385
G1 X147.142 Y69.402 E.01504
G1 X147.445 Y69.603 E.01356
G1 X147.523 Y69.708 E.00487
G1 X147.12 Y69.948 F30000
G1 F3000
G1 X147.23 Y70.047 E.00551
G1 X155.513 Y81.756 E.53422
G1 X155.624 Y82.01 E.01033
G1 X155.632 Y82.248 E.00885
G1 X155.511 Y82.55 E.01212
G1 X155.181 Y82.831 E.01616
G1 X143.64 Y90.995 E.52654
G1 X143.418 Y91.098 E.00912
G1 X143.08 Y91.101 E.0126
G1 X142.793 Y90.952 E.01205
G1 X142.244 Y90.209 E.03438
G1 X134.401 Y79.122 E.50584
G3 X134.565 Y78.166 I.587 J-.391 E.03982
G1 X146.274 Y69.883 E.53422
G3 X147.006 Y69.845 I.399 J.624 E.02857
G1 X147.09 Y69.921 E.00421
G1 X146.825 Y70.275 F30000
;TYPE:Outer wall
G1 F3000
G1 X147.381 Y71.052 E.03557
G1 X155.14 Y82.02 E.50042
G1 X155.179 Y82.184 E.00628
G1 X155.085 Y82.339 E.00675
G1 X143.376 Y90.622 E.53422
G1 X143.237 Y90.664 E.00538
G1 X143.093 Y90.607 E.00576
G1 X142.617 Y89.945 E.03038
G1 X134.774 Y78.858 E.50584
G1 X134.732 Y78.723 E.00524
G1 X134.829 Y78.539 E.00774
G1 X146.538 Y70.256 E.53422
G1 X146.686 Y70.215 E.00572
G1 X146.788 Y70.259 E.00415
G1 E-.35 F2400
;WIPE_START
G1 F3000
G1 X147.381 Y71.052 E-.14844
G1 X147.387 Y71.06 E-.00156
;WIPE_END
G1 Z.4 F30000
G1 X144.783 Y67.358 Z.4
G1 Z.2
G1 E.5 F2400
;TYPE:Inner wall
G1 F3000
G1 X144.612 Y67.533 E.00911
G1 X132.902 Y75.816 E.53422
G1 X132.533 Y75.988 E.01519
G1 X132.21 Y76.025 E.01208
G1 X131.805 Y75.939 E.01544
G1 X131.49 Y75.743 E.01379
G1 X130.869 Y74.921 E.03839
G1 X123.026 Y63.834 E.50584
G1 X122.866 Y63.505 E.0136
G1 X122.817 Y63.162 E.01294
G1 X122.872 Y62.823 E.01276
G1 X123.014 Y62.532 E.01208
G1 X123.299 Y62.241 E.01519
G1 X135.009 Y53.958 E.53422
G1 X135.378 Y53.785 E.01519
G1 X135.749 Y53.751 E.01385
G1 X136.14 Y53.85 E.01504
G1 X136.444 Y54.051 E.01356
G1 X137.126 Y54.972 E.04268
G1 X144.885 Y65.94 E.50042
M73 P1 R79
G1 X145.048 Y66.278 E.01399
G1 X145.094 Y66.632 E.01328
G3 X144.888 Y67.236 I-1.249 J-.089 E.02403
G1 X144.809 Y67.328 E.00452
G1 X144.462 Y67.043 F30000
G1 F3000
G1 X144.348 Y67.16 E.00608
G1 X132.638 Y75.443 E.53422
G1 X132.417 Y75.546 E.00911
G1 X132.078 Y75.549 E.0126
G1 X131.791 Y75.399 E.01205
G1 X131.243 Y74.657 E.03438
G1 X123.4 Y63.57 E.50584
G3 X123.563 Y62.614 I.587 J-.391 E.03982
G1 X135.273 Y54.331 E.53422
G3 X136.005 Y54.293 I.399 J.624 E.02857
G1 X136.229 Y54.495 E.01121
G1 X144.512 Y66.204 E.53422
G3 X144.515 Y66.982 I-.584 J.392 E.03072
G1 X144.488 Y67.013 E.00152
G1 X144.135 Y66.725 F30000
;TYPE:Outer wall
G1 F3000
G3 X144.084 Y66.787 I-.22 J-.131 E.003
G1 X132.374 Y75.07 E.53422
G1 X132.236 Y75.112 E.00538
